X:59
T:Jim Keefe's
R:polka
Z:id:hn-polka-59
M:2/4
L:1/8
K:D
fa af/a/|ba fa|ga/g/ Bc|ed c/B/A|a2 af/a/|ba fa|ga/g/ Bc|ed de:|
|:f (3g/f/e/ fe|dc BA|g>f ga|ba f/g/a|f (3g/f/e/ fe|dc BA|ga/g/ Bc|ed de:|
<end>
<start>
